icon-themes/sifr_svg/cmd/sc_diagramaxisz.svg

<svg viewBox="0 0 16 16" xmlns="http://www.w3.org/2000/svg"><path d="m6 0v8.5859375l-1.2929688-1.2929687-1.4140624 1.4140624 1.2929687 1.2929688-1.5859375 1.585938-1.2929688-1.292969-1.41406245 1.414062 1.29296875 1.292969-1.5859375 1.585938 1.4140625 1.414062 6-6h.5859375 8v-2h-8v-8z" fill="#555753"/></svg>

<svg xmlns="http://www.w3.org/2000/svg" viewBox="0 0 16 16">
  <path
     style="fill:#555753"
     d="M 6,0 V 8.5859375 L 4.7070312,7.2929688 3.2929688,8.7070312 4.5859375,10 3,11.585938 1.7070312,10.292969 0.29296875,11.707031 1.5859375,13 0,14.585938 1.4140625,16 l 6,-6 H 8 16 V 8 H 8 V 0 Z"
     />
</svg>
